reader/components/icons/assets/outline.svg

<svg viewBox="0 0 24 24" xmlns="http://www.w3.org/2000/svg">
  <path d="M22.2491 0H1.78113C0.784906 0 0 0.784906 0 1.78113V22.2189C0 23.2151 0.784906 24 1.78113 24H22.2189C23.2151 24 24 23.2151 24 22.2189V1.78113C24.0302 0.815095 23.2151 0 22.2491 0ZM19.8038 18.1434C19.8038 18.2943 19.683 18.4453 19.5019 18.4453H4.49811C4.34717 18.4453 4.19623 18.3245 4.19623 18.1434V16.7245C4.19623 16.5736 4.31698 16.4226 4.49811 16.4226H19.5019C19.6528 16.4226 19.8038 16.5434 19.8038 16.7245V18.1434ZM19.8038 14.5208C19.8038 14.6717 19.683 14.8226 19.5019 14.8226H4.49811C4.34717 14.8226 4.19623 14.7019 4.19623 14.5208V13.1019C4.19623 12.9509 4.31698 12.8 4.49811 12.8H19.5019C19.6528 12.8 19.8038 12.9208 19.8038 13.1019V14.5208ZM19.8038 10.8981C19.8038 11.0491 19.683 11.2 19.5019 11.2H4.49811C4.34717 11.2 4.19623 11.0792 4.19623 10.8981V9.47925C4.19623 9.3283 4.31698 9.17736 4.49811 9.17736H19.5019C19.6528 9.17736 19.8038 9.29811 19.8038 9.47925V10.8981ZM19.8038 7.27547C19.8038 7.42641 19.683 7.57736 19.5019 7.57736H4.49811C4.34717 7.57736 4.19623 7.4566 4.19623 7.27547V5.8566C4.19623 5.70566 4.31698 5.55472 4.49811 5.55472H19.5019C19.6528 5.55472 19.8038 5.67547 19.8038 5.8566V7.27547Z"/>
</svg>

<svg viewBox="0 0 24 24" xmlns="http://www.w3.org/2000/svg"><path d="M22.25 0H1.78C.785 0 0 .785 0 1.781V22.22C0 23.215.785 24 1.781 24H22.22c.996 0 1.781-.785 1.781-1.781V1.78C24.03.815 23.215 0 22.25 0zm-2.446 18.143c0 .151-.121.302-.302.302H4.498a.303.303 0 01-.302-.302v-1.419c0-.15.121-.301.302-.301h15.004c.15 0 .302.12.302.302v1.418zm0-3.622c0 .15-.121.302-.302.302H4.498a.302.302 0 01-.302-.302V13.1c0-.15.121-.301.302-.301h15.004c.15 0 .302.12.302.302v1.419zm0-3.623c0 .151-.121.302-.302.302H4.498a.303.303 0 01-.302-.302V9.48c0-.15.121-.302.302-.302h15.004c.15 0 .302.121.302.302v1.42zm0-3.623c0 .151-.121.302-.302.302H4.498a.303.303 0 01-.302-.302V5.857c0-.151.121-.302.302-.302h15.004c.15 0 .302.12.302.302v1.418z"/></svg>
